X:1
T:A minor Oliver Holden, 1792
T:Isaac Watts, 1706 ( Self-Consecration ) 886. 88. 86. 
T:Consecration No copyright. Treble-Tenor-Bass from American Harmony , 1792 Counter by B. C. Johnston, 2015.
%%score [ 1 2 3 4 ]
L:1/8
M:4/4
K:C
V:1 treble nm="Treble" snm="Tr."
V:2 treble nm="Counter" snm="C."
V:3 treble-8 nm="Tenor" snm="T."
V:4 bass nm="Bass" snm="B."
V:1
 e4 | e3 d c2 c2 | B3 A G4 | E4 G2 A2 | B3 B B2 B2 | c6 c2 | d2 cB A2 ^G2 | A8 |: z4 G4 | %9
 G2 E2 E2 G2 | B2 B2 (B2 c2 | edcB c4 | B6) A2 | B2 A2 ^G2 e2 | d4 e4 | e6 e2 | c2 d2 B2 B2 | %17
 B2 c2 B2 ^G2 | A2 cB A2 ^G2 | A8 :| %20
V:2
 A4 | A3 B G2 G2 | E3 A B4 | A4 G2 F2 | G3 F G2 E2 | E6 G2 | F2 GF E2 E2 | E8 |: z4 E4 | %9
w: 1.~It|grieves me, Lord, it|grieves me sore,|That I have|lived to Thee no|more, And|was- ted * half my|days.|My|
 D2 E2 E2 D2 | E2 F2 E4- | (E4 F4 | G6) E2 | D2 E2 E2 E2 | D4 C2 DE | E6 E2 | C2 D2 E2 E2 | %17
w: in- ward powers shall|burn and flame~~~~|_ _|* With|zeal and pas- sion|for Thy~ _ _|name: I|would not speak but|
 G2 F2 E2 E2 | A2 EF E2 E2 | E8 :| %20
w: for my God, Nor|move but * to His|praise.|
V:3
 A4 | c3 d e2 A2 | ^G3 A B4 | c4 B2 A2 | G3 F E2 E2 | E6 e2 | f2 ed c2 B>A | A8 |: z4 c4 | %9
 d2 cB c2 BA | G2 F2 (E4 | e4 f2 ed | e6) c2 | d2 c2 B2 c2 | A4 (A2 Bc) | B6 B2 | e2 A2 G2 E2 | %17
 G2 F2 E2 e2 | f2 ed c2 B>A | A8 :| %20
V:4
 A,,4 | A,,3 B,, C,2 C,2 | E,3 A,, E,4 | A,4 G,2 F,2 | E,3 D, E,2 G,2 | C,6 E,2 | %6
 D,2 C,D, E,2 E,2 | A,,8 |: z4 C,4 | G,2 A,2 A,2 G,2 | E,2 D,2 (E,4 | A,8 | E,6) A,2 | %13
 ^G,2 A,2 E,2 A,,2 | D,4 A,,4 | E,6 E,2 | E,2 D,2 E,2 G,2 | G,2 A,2 E,2 E,2 | D,2 C,D, E,2 E,2 | %19
 A,,8 :| %20

